common/src/main/resources/icons/expui/fileTypes/ignored.svg

<svg xmlns="http://www.w3.org/2000/svg" width="16" height="16" data-big="true" viewBox="0 0 400 400"><path fill="#90A4AE" fill-rule="evenodd" d="M279.357 107.5c.125.825.601 4.29 1.057 7.7 1.574 11.763 2.397 17.018 3.522 22.5.62 3.025 1.095 5.5 1.055 5.5s-2.575-1.469-5.632-3.264c-3.058-1.796-8.079-4.418-11.159-5.827-3.08-1.41-6.95-3.199-8.6-3.976-4.925-2.319-8.031-3.464-8.374-3.086-.177.194-1.146 2.783-2.154 5.753a4128 4128 0 0 1-4.853 14.159c-3.503 10.164-3.236 9.041-2.151 9.041.804 0 13.358 1.983 21.732 3.433 1.98.343 5.94.976 8.8 1.407s5.351.829 5.537.884-.805.987-2.2 2.071c-5.017 3.897-24.777 23.875-24.247 24.513.263.317 1.548 1.303 2.856 2.191s2.665 1.851 3.016 2.139c.984.807 8.396 6.227 10.638 7.778 1.1.761 2.09 1.488 2.2 1.616.433.501 6.145 4.368 6.453 4.368.181 0 .66-.675 1.066-1.5.405-.825 1.912-3.57 3.348-6.1s3.152-5.59 3.814-6.8 1.848-3.37 2.635-4.8c.788-1.43 2.543-5.12 3.9-8.2 1.358-3.08 2.512-5.648 2.566-5.707.054-.058.867 1.652 1.808 3.8 3.431 7.837 14.83 29.307 15.56 29.307.268 0 3.198-2.026 4.327-2.992.262-.224 4.979-3.738 10.482-7.808 5.504-4.07 10.012-7.49 10.017-7.6.052-.955-17.986-19.689-22.609-23.483l-3.311-2.717 3.872-.281c7.918-.575 11.85-1.16 22.33-3.326 5.908-1.221 10.963-2.296 11.232-2.39.351-.122.049-1.457-1.059-4.687-.852-2.484-2.943-8.836-4.646-14.116s-3.258-9.807-3.457-10.06c-.367-.47-17.028 7.207-25.728 11.855-4.963 2.652-8.368 4.343-8.502 4.224-.057-.05.339-2.054.879-4.455 1.28-5.689 1.571-7.599 3.005-19.764.661-5.61 1.285-10.785 1.385-11.5l.183-1.3h-30.82zM142.4 128.6v19h56.4v-38h-56.4zm0 109.2v73h56.4v-146h-56.4zm-95.6 45v28h60v-56h-60z"/></svg>

<!--
  - The MIT License (MIT)
  -
  - Copyright (c) 2015-2024 Elior "Mallowigi" Boukhobza
  -
  - Permission is hereby granted, free of charge, to any person obtaining a copy
  - of this software and associated documentation files (the "Software"), to deal
  - in the Software without restriction, including without limitation the rights
  - to use, copy, modify, merge, publish, distribute, sublicense, and/or sell
  - copies of the Software, and to permit persons to whom the Software is
  - furnished to do so, subject to the following conditions:
  -
  - The above copyright notice and this permission notice shall be included in all
  - copies or substantial portions of the Software.
  -
  - THE SOFTWARE IS PROVIDED "AS IS", WITHOUT WARRANTY OF ANY KIND, EXPRESS OR
  - IMPLIED, INCLUDING BUT NOT LIMITED TO THE WARRANTIES OF MERCHANTABILITY,
  - FITNESS FOR A PARTICULAR PURPOSE AND NONINFRINGEMENT. IN NO EVENT SHALL THE
  - AUTHORS OR COPYRIGHT HOLDERS BE LIABLE FOR ANY CLAIM, DAMAGES OR OTHER
  - LIABILITY, WHETHER IN AN ACTION OF CONTRACT, TORT OR OTHERWISE, ARISING FROM,
  - OUT OF OR IN CONNECTION WITH THE SOFTWARE OR THE USE OR OTHER DEALINGS IN THE
  - SOFTWARE.
  -->

<svg data-big="true" xmlns="http://www.w3.org/2000/svg" width="16px" height="16px" viewBox="0,0,400,400">
  <g fill="#90A4AE">
    <path
      d="M279.357 107.500 C 279.482 108.325,279.958 111.790,280.414 115.200 C 281.988 126.963,282.811 132.218,283.936 137.700 C 284.556 140.725,285.031 143.200,284.991 143.200 C 284.951 143.200,282.416 141.731,279.359 139.936 C 276.301 138.140,271.280 135.518,268.200 134.109 C 265.120 132.699,261.250 130.910,259.600 130.133 C 254.675 127.814,251.569 126.669,251.226 127.047 C 251.049 127.241,250.080 129.830,249.072 132.800 C 248.063 135.770,245.880 142.142,244.219 146.959 C 240.716 157.123,240.983 156.000,242.068 156.000 C 242.872 156.000,255.426 157.983,263.800 159.433 C 265.780 159.776,269.740 160.409,272.600 160.840 C 275.460 161.271,277.951 161.669,278.137 161.724 C 278.322 161.779,277.332 162.711,275.937 163.795 C 270.920 167.692,251.160 187.670,251.690 188.308 C 251.953 188.625,253.238 189.611,254.546 190.499 C 255.854 191.387,257.211 192.350,257.562 192.638 C 258.546 193.445,265.958 198.865,268.200 200.416 C 269.300 201.177,270.290 201.904,270.400 202.032 C 270.833 202.533,276.545 206.400,276.853 206.400 C 277.034 206.400,277.513 205.725,277.919 204.900 C 278.324 204.075,279.831 201.330,281.267 198.800 C 282.702 196.270,284.419 193.210,285.081 192.000 C 285.743 190.790,286.929 188.630,287.716 187.200 C 288.504 185.770,290.259 182.080,291.616 179.000 C 292.974 175.920,294.128 173.352,294.182 173.293 C 294.236 173.235,295.049 174.945,295.990 177.093 C 299.421 184.930,310.820 206.400,311.550 206.400 C 311.818 206.400,314.748 204.374,315.877 203.408 C 316.139 203.184,320.856 199.670,326.359 195.600 C 331.863 191.530,336.371 188.110,336.376 188.000 C 336.428 187.045,318.390 168.311,313.767 164.517 L 310.456 161.800 314.328 161.519 C 322.246 160.944,326.178 160.359,336.658 158.193 C 342.566 156.972,347.621 155.897,347.890 155.803 C 348.241 155.681,347.939 154.346,346.831 151.116 C 345.979 148.632,343.888 142.280,342.185 137.000 C 340.482 131.720,338.927 127.193,338.728 126.940 C 338.361 126.470,321.700 134.147,313.000 138.795 C 308.037 141.447,304.632 143.138,304.498 143.019 C 304.441 142.969,304.837 140.965,305.377 138.564 C 306.657 132.875,306.948 130.965,308.382 118.800 C 309.043 113.190,309.667 108.015,309.767 107.300 L 309.950 106.000 294.540 106.000 L 279.130 106.000 279.357 107.500 M142.400 128.600 L 142.400 147.600 170.600 147.600 L 198.800 147.600 198.800 128.600 L 198.800 109.600 170.600 109.600 L 142.400 109.600 142.400 128.600 M142.400 237.800 L 142.400 310.800 170.600 310.800 L 198.800 310.800 198.800 237.800 L 198.800 164.800 170.600 164.800 L 142.400 164.800 142.400 237.800 M46.800 282.800 L 46.800 310.800 76.800 310.800 L 106.800 310.800 106.800 282.800 L 106.800 254.800 76.800 254.800 L 46.800 254.800 46.800 282.800 "
      stroke="none" fill-rule="evenodd"/>
  </g>
</svg>
